X:7788
T:Untitled Reel #1
O:england
N:Reel, from the playing of Rafe Stefanini at a workshop
M:4/4
L:1/16
K:C
G,B,\C2CA, G,A,CD EGAC A2GA|
cdeg edcG egab a2ag|abcb agec e2e2 {de}d2cA|
GEDB, [E2C2][E2C2][E2C2]FED CDEG|
AcAG AcAG Acde dcAc|egab a2ag abcb agec|
e2e2 {de}d2cA GEDB, [E2C2][E2C2] :|
z2 {gagf}g2|edcA g2[cg]g egag e2[ec][dc]
e2a2 {ga}g2eg abag edcA|
G2[GC ][GC] ggcc egag edcd|
{eaga}g2eg abag edcA|A3D EGED CB,CD EGAG|
([C3E3]E[E2C2] :|


